app/images/logo.svg

<svg fill="none" height="32" viewBox="0 0 40 32" width="40" xmlns="http://www.w3.org/2000/svg"><path clip-rule="evenodd" d="m19.8523 3.94903c-2.9619-3.099157-6.7568-4.42432-10.54874-3.797197-3.58347.592651-6.71124 2.892477-8.25998 6.150567-1.729051 3.63744-1.303199 7.9235 1.23042 12.0956 2.96622 4.8845 8.66 9.457 16.9148 13.4499.4191.2028.9079.2028 1.327 0 8.2549-3.9929 13.9486-8.5654 16.9148-13.4499 2.5336-4.1721 2.9595-8.45816 1.2305-12.0956-1.5488-3.25809-4.6766-5.557916-8.26-6.150567-3.7919-.627123-7.5869.69804-10.5488 3.797197zm-2.053 2.26561c-2.3634-2.56394-5.2379-3.51261-7.99847-3.05606-2.63087.43511-4.8981 2.12402-6.0048 4.4522-1.19548 2.51492-1.04131 5.70752 1.08286 9.20532 2.46365 4.0569 7.35421 8.1817 14.97341 11.9633 7.6193-3.7816 12.5098-7.9064 14.9734-11.9633 2.1242-3.4978 2.2784-6.6904 1.0829-9.20532-1.1067-2.32818-3.3739-4.01709-6.0048-4.4522-2.7605-.45655-5.6351.49212-7.9984 3.05606l-.9327 1.0118c-.2885.31298-.6947.49103-1.1204.49103-.4256 0-.8319-.17805-1.1204-.49103z" fill="#bf0020" fill-rule="evenodd"/><path d="m19.0246 19.4274-2.2111 1.1361c-.226.1161-.5055.0313-.6243-.1895-.0474-.0879-.0637-.1886-.0465-.2865l.4225-2.4075c.0988-.5633-.0923-1.1381-.5112-1.5372l-1.7897-1.705c-.1828-.1741-.1864-.4601-.0082-.6387.0709-.071.1639-.1173.2645-.1316l2.4725-.3511c.5792-.0823 1.0799-.4377 1.3388-.9505l1.1057-2.1897c.113-.22371.3902-.31559.6191-.20523.0913.04393.1651.11613.2101.20523l1.1057 2.1897c.259.5128.7596.8682 1.3388.9505l2.4726.3511c.2526.0359.4277.2651.3909.5119-.0146.0983-.0619.1891-.1347.2584l-1.7897 1.705c-.4188.3991-.61.9739-.5111 1.5372l.4225 2.4075c.0431.2458-.1259.4793-.3776.5214-.1002.0168-.2033.0009-.2933-.0454l-2.211-1.1361c-.5182-.2662-1.1372-.2662-1.6553 0z" fill="#18a1e6"/></svg>

<svg width="40" height="32" viewBox="0 0 40 32" fill="none" xmlns="http://www.w3.org/2000/svg">
<path fill-rule="evenodd" clip-rule="evenodd" d="M19.8523 3.94903C16.8904 0.849873 13.0955 -0.47529 9.30356 0.151833C5.72009 0.744484 2.59232 3.04431 1.04358 6.3024C-0.685471 9.93984 -0.259619 14.2259 2.274 18.398C5.24022 23.2825 10.934 27.855 19.1888 31.8479C19.6079 32.0507 20.0967 32.0507 20.5158 31.8479C28.7707 27.855 34.4644 23.2825 37.4306 18.398C39.9642 14.2259 40.3901 9.93984 38.6611 6.3024C37.1123 3.04431 33.9845 0.744484 30.4011 0.151833C26.6092 -0.47529 22.8142 0.849873 19.8523 3.94903ZM17.7993 6.21464C15.4359 3.6507 12.5614 2.70203 9.80083 3.15858C7.16996 3.59369 4.90273 5.2826 3.79603 7.61078C2.60055 10.1257 2.75472 13.3183 4.87889 16.8161C7.34254 20.873 12.2331 24.9978 19.8523 28.7794C27.4716 24.9978 32.3621 20.873 34.8257 16.8161C36.9499 13.3183 37.1041 10.1257 35.9086 7.61078C34.8019 5.2826 32.5347 3.59369 29.9038 3.15858C27.1433 2.70203 24.2687 3.6507 21.9054 6.21464L20.9727 7.22644C20.6842 7.53942 20.278 7.71747 19.8523 7.71747C19.4267 7.71747 19.0204 7.53942 18.7319 7.22644L17.7993 6.21464Z" fill="#BF0020"/>
<path d="M19.0246 19.4274L16.8135 20.5635C16.5875 20.6796 16.308 20.5948 16.1892 20.374C16.1418 20.2861 16.1255 20.1854 16.1427 20.0875L16.5652 17.68C16.664 17.1167 16.4729 16.5419 16.054 16.1428L14.2643 14.4378C14.0815 14.2637 14.0779 13.9777 14.2561 13.7991C14.327 13.7281 14.42 13.6818 14.5206 13.6675L16.9931 13.3164C17.5723 13.2341 18.073 12.8787 18.3319 12.3659L19.4376 10.1762C19.5506 9.95249 19.8278 9.86061 20.0567 9.97097C20.148 10.0149 20.2218 10.0871 20.2668 10.1762L21.3725 12.3659C21.6315 12.8787 22.1321 13.2341 22.7113 13.3164L25.1839 13.6675C25.4365 13.7034 25.6116 13.9326 25.5748 14.1794C25.5602 14.2777 25.5129 14.3685 25.4401 14.4378L23.6504 16.1428C23.2316 16.5419 23.0404 17.1167 23.1393 17.68L23.5618 20.0875C23.6049 20.3333 23.4359 20.5668 23.1842 20.6089C23.084 20.6257 22.9809 20.6098 22.8909 20.5635L20.6799 19.4274C20.1617 19.1612 19.5427 19.1612 19.0246 19.4274Z" fill="#18A1E6"/>
</svg>
